X:61
T:The New-Mown Meadows
M:4/4
L:1/8
K:D
FA|BEED E2 FA|BdcA BAFA|BE E2 FEFG|A2 BA FEFA|
BEED E2 FA|BdcA BAFA|d3 B c2 cB|AcBA FEFA :|
e2 ce fecd|e2 cA BAFA|e2 ce fecB|AcBA FE E2|
e2 ce fecd|efec BABc|d3 B c2 cB AcBA FEFA :|
